Yaru++/mimetypes/48/application-msexcel.svg

<svg height="48" viewBox="0 0 12.7 12.7" width="48" xmlns="http://www.w3.org/2000/svg" xmlns:xlink="http://www.w3.org/1999/xlink"><linearGradient id="a" gradientUnits="userSpaceOnUse" x1="6.350384" x2="6.350384" y1=".396869" y2="12.038536"><stop offset="0" stop-color="#fff"/><stop offset=".125" stop-color="#fff" stop-opacity=".098039"/><stop offset=".92500001" stop-color="#fff" stop-opacity=".098039"/><stop offset="1" stop-color="#fff" stop-opacity=".498039"/></linearGradient><linearGradient id="b" gradientTransform="matrix(0 -.03065352 .03080287 0 -3.30013 13.794409)" gradientUnits="userSpaceOnUse" x1="441.37933" x2="52.965569" y1="240.30261" y2="386.30783"><stop offset="0" stop-color="#007946"/><stop offset="1" stop-color="#009053"/></linearGradient><path d="m4.1624031.39686923c-.5881423-.0089587-1.0513696.0135414-1.4324701.0775148-.3811032.063972-.692957.1839645-.921393.411861-.2284333.22789667-.3490013.53960997-.4123769.92087397-.0633756.3812644-.0757476.845434-.0728636 1.4350545v3.2401124 3.2416624c-.00286.5887147.00955 1.0526497.072864 1.4335037.063376.381265.1839436.692978.4123769.920875.228436.227896.5402898.34789.921393.411861.3811032.06397.844259.07752 1.4324701.07752h4.3759596c.5882111 0 1.0511261-.01352 1.4314383-.07752.3803116-.064.6912126-.184399.9188046-.412377.227595-.227978.347451-.53947.411345-.920359.06389-.380886.07752-.844114.07752-1.4335037v-3.2416624-3.175l-2.8391083-2.84375407z" opacity=".1"/><path d="m4.1018796.26457813c-2.3994957 0-2.6576788.2452553-2.645918 2.63787837v3.3152466 3.3152472c-.011774 2.3926217.2464223 2.6378777 2.645918 2.6378777h4.4973796c2.3994958 0 2.6459178-.245227 2.6459178-2.6378777v-3.3152472l-.000182-3.247159-2.7192265-2.70596597z" fill="url(#b)"/><g fill="#fff"><g enable-background="new" stroke-width="1.333333" transform="matrix(.26458333 0 0 .26458333 -84.666354 -14.948878)"><path d="m344.63307 71.999674-12.63281 2-.002 19.133138 12.54666 1.867188h1.45313l.002-23.000326zm-3.20338 7.69685c-.69761 1.42916-1.39871 2.85731-2.10938 4.28125.71851 1.46313 1.45272 2.915776 2.17383 4.378906-.62967-.0366-1.25509-.07472-1.88476-.119141-.44417-1.08952-.98594-2.14209-1.30469-3.28125-.35533 1.06077-.86194 2.05974-1.26953 3.09961-.57219-.008-1.14462-.03119-1.7168-.05469.67147-1.31421 1.31935-2.638942 2.01172-3.945312-.58786-1.34555-1.2337-2.664233-1.83985-4.001953.5748-.034 1.14981-.06821 1.72461-.09961.3893 1.02158.81536 2.030415 1.13672 3.078125.34489-1.11042.85922-2.154675 1.30078-3.228515.59048-.0418 1.18425-.07864 1.77735-.107422z"/><path d="m347 75-.002 2h2v2.00342h-2v.99658h2v2h-2v1h2v2h-2v1h2v2h-2v1h2v2h-2l.002 2h9v-18zm2.99805 2h4.00195v2.00342h-4.00195zm0 3h4.00195v2h-4.00195zm0 3h4.00195v2h-4.00195zm0 3h4.00195v2h-4.00195zm0 3h4.00195v2h-4.00195z"/></g><path d="m1.5878828 6.2177026v3.2416627c-.011456 2.3394527.2397893 2.5791707 2.5745203 2.5791707h4.3759596c2.3347313 0 2.5745203-.239691 2.5745203-2.5791707v-3.2416627z" opacity=".1"/><path d="m6.3503829.39686923v11.64166677h2.1879798c2.3347313 0 2.5745203-.239691 2.5745203-2.5791707v-3.2416627-3.175l-2.6458334-2.64583337z" opacity=".1"/></g><path d="m4.1624031.13228593c-.5882111 0-1.0513696.013541-1.4324701.077515-.3811032.0639717-.692957.1839643-.921393.4118607-.2284333.2278968-.3490013.53961007-.4123769.92087407-.0633756.3812643-.0757476.845434-.0728636 1.4350545v3.2401124 3.2416627c-.00286.5887137.00955 1.0526497.072864 1.4335037.063376.381265.1839436.692978.4123769.920874.228436.227897.5402898.34789.921393.411861.3811032.06397.844259.07752 1.4324701.07752h4.3759596c.5882111 0 1.0511261-.01352 1.4314383-.07752.3803116-.064.6912126-.184398.9188046-.412377.227595-.227978.347451-.539469.411345-.920358.06389-.380886.07752-.844115.07752-1.4335037v-3.2416627-3.2845539l-2.8008681-2.80086277zm0 .2645833h4.3046465l2.6458334 2.64583337v3.175 3.2416627c0 2.3394797-.239789 2.5791707-2.5745203 2.5791707h-4.3759596c-2.334731 0-2.5859767-.239718-2.5745203-2.5791707v-3.2416627-3.2416626c-.0114432-2.33945377.2397893-2.57917077 2.5745203-2.57917077z" opacity=".4"/><path d="m4.1624031.39686923c-2.334731 0-2.5859635.239717-2.5745203 2.57917077v3.2416626 3.2416627c-.011456 2.3394527.2397893 2.5791707 2.5745203 2.5791707h4.3759596c2.3347313 0 2.5745203-.239691 2.5745203-2.5791707v-3.2416627-3.175h-.264583v3.175 3.2416627c0 .5803497-.01625 1.0241217-.07028 1.3461697-.05403.322051-.139878.509149-.264068.633556-.12419.124394-.310716.21051-.632002.264583-.3212889.05406-.7644342.07028-1.3435886.07028h-4.3759583c-.5791544 0-1.0228501-.01619-1.3451391-.07028-.3222863-.0541-.5103204-.140097-.6351032-.264583-.1247801-.124495-.2105977-.311367-.2640647-.633037-.05347-.32167-.068472-.76555-.06563-1.3456557v-.000529-3.2421667-3.2421793-.0005292c-.002831-.5801064.0121709-1.0239838.06563-1.3456544.0534696-.3216707.1392846-.5085498.2640647-.63303627.1247801-.1244864.3133355-.210484.6356218-.2645833.3222863-.0540745.7654661-.0702675 1.3446205-.0702675h4.3046465v-.2645834z" fill="url(#a)" opacity=".4"/><path d="m11.112883 3.3072859v-.2645833l-2.6458334-2.64583337h-.2645834v1.11364557.04267.022918c0 1.506003.2016019 1.7382252 1.7110608 1.7308441z" fill="#00492b" opacity=".6"/><path d="m11.112883 3.0423639-2.6458334-2.64549517v.98132417.04267.022918c0 1.5060031.069406 1.6059637 1.5788644 1.5985826z" fill="#5cb690"/></svg>

<?xml version="1.0" encoding="UTF-8" standalone="no"?>
<svg
   xmlns:dc="http://purl.org/dc/elements/1.1/"
   xmlns:cc="http://creativecommons.org/ns#"
   xmlns:rdf="http://www.w3.org/1999/02/22-rdf-syntax-ns#"
   xmlns:svg="http://www.w3.org/2000/svg"
   xmlns="http://www.w3.org/2000/svg"
   xmlns:xlink="http://www.w3.org/1999/xlink"
   xmlns:sodipodi="http://sodipodi.sourceforge.net/DTD/sodipodi-0.dtd"
   xmlns:inkscape="http://www.inkscape.org/namespaces/inkscape"
   height="48"
   viewBox="0 0 12.7 12.7"
   width="48"
   version="1.1"
   id="svg36"
   sodipodi:docname="application-msexcel.svg"
   inkscape:version="0.92.5 (2060ec1f9f, 2020-04-08)">
  <metadata
     id="metadata42">
    <rdf:RDF>
      <cc:Work
         rdf:about="">
        <dc:format>image/svg+xml</dc:format>
        <dc:type
           rdf:resource="http://purl.org/dc/dcmitype/StillImage" />
      </cc:Work>
    </rdf:RDF>
  </metadata>
  <defs
     id="defs40">
    <linearGradient
       gradientTransform="matrix(0.26458333,0,0,0.26458333,-84.666282,-16.007297)"
       inkscape:collect="always"
       xlink:href="#linearGradient927"
       id="linearGradient1004"
       x1="344"
       y1="62"
       x2="344"
       y2="106"
       gradientUnits="userSpaceOnUse" />
    <linearGradient
       inkscape:collect="always"
       id="linearGradient927">
      <stop
         style="stop-color:#ffffff;stop-opacity:1;"
         offset="0"
         id="stop923" />
      <stop
         id="stop933"
         offset="0.125"
         style="stop-color:#ffffff;stop-opacity:0.09803922" />
      <stop
         id="stop931"
         offset="0.92500001"
         style="stop-color:#ffffff;stop-opacity:0.09803922" />
      <stop
         style="stop-color:#ffffff;stop-opacity:0.49803922"
         offset="1"
         id="stop925" />
    </linearGradient>
    <linearGradient
       inkscape:collect="always"
       xlink:href="#linearGradient4338-3"
       id="linearGradient1024"
       gradientUnits="userSpaceOnUse"
       gradientTransform="matrix(0,-0.03065352,0.03080287,0,-3.3001301,13.794409)"
       x1="441.37933"
       y1="240.30261"
       x2="52.965569"
       y2="386.30783" />
    <linearGradient
       inkscape:collect="always"
       id="linearGradient4338-3">
      <stop
         style="stop-color:#007946;stop-opacity:1"
         offset="0"
         id="stop4340-0" />
      <stop
         style="stop-color:#009053;stop-opacity:1"
         offset="1"
         id="stop4342-7" />
    </linearGradient>
  </defs>
  <sodipodi:namedview
     pagecolor="#ffffff"
     bordercolor="#666666"
     borderopacity="1"
     objecttolerance="10"
     gridtolerance="10"
     guidetolerance="10"
     inkscape:pageopacity="0"
     inkscape:pageshadow="2"
     inkscape:window-width="834"
     inkscape:window-height="480"
     id="namedview38"
     showgrid="false"
     inkscape:zoom="4.9166667"
     inkscape:cx="24"
     inkscape:cy="24"
     inkscape:window-x="0"
     inkscape:window-y="28"
     inkscape:window-maximized="0"
     inkscape:current-layer="svg36" />
  <linearGradient
     id="a"
     gradientUnits="userSpaceOnUse"
     x1="6.35038352"
     x2="6.35038352"
     y1="284.43232313"
     y2="296.60315631">
    <stop
       offset="0"
       stop-color="#fff"
       id="stop2" />
    <stop
       offset=".125"
       stop-color="#fff"
       stop-opacity=".098039"
       id="stop4" />
    <stop
       offset=".92500001"
       stop-color="#fff"
       stop-opacity=".098039"
       id="stop6" />
    <stop
       offset="1"
       stop-opacity=".498039"
       id="stop8" />
  </linearGradient>
  <linearGradient
     id="b"
     gradientTransform="matrix(0 -.02997233 -.02997147 0 15.740062 297.92607)"
     gradientUnits="userSpaceOnUse"
     x1="512"
     x2="-.000001"
     y1="397.99393"
     y2="125.99394">
    <stop
       offset="0"
       stop-color="#007946"
       id="stop11" />
    <stop
       offset="1"
       stop-color="#009053"
       id="stop13" />
  </linearGradient>
  <path
     style="color:#000000;font-style:normal;font-variant:normal;font-weight:normal;font-stretch:normal;font-size:medium;line-height:normal;font-family:sans-serif;font-variant-ligatures:normal;font-variant-position:normal;font-variant-caps:normal;font-variant-numeric:normal;font-variant-alternates:normal;font-feature-settings:normal;text-indent:0;text-align:start;text-decoration:none;text-decoration-line:none;text-decoration-style:solid;text-decoration-color:#000000;letter-spacing:normal;word-spacing:normal;text-transform:none;writing-mode:lr-tb;direction:ltr;text-orientation:mixed;dominant-baseline:auto;baseline-shift:baseline;text-anchor:start;white-space:normal;shape-padding:0;clip-rule:nonzero;display:inline;overflow:visible;visibility:visible;opacity:0.1;isolation:auto;mix-blend-mode:normal;color-interpolation:sRGB;color-interpolation-filters:linearRGB;solid-color:#000000;solid-opacity:1;vector-effect:none;fill:#000000;fill-opacity:1;fill-rule:nonzero;stroke:none;stroke-width:0.52916664;stroke-linecap:butt;stroke-linejoin:miter;stroke-miterlimit:4;stroke-dasharray:none;stroke-dashoffset:0;stroke-opacity:1;marker:none;color-rendering:auto;image-rendering:auto;shape-rendering:auto;text-rendering:auto;enable-background:accumulate"
     d="M 4.1624031,0.39686923 C 3.5742608,0.38791053 3.1110335,0.41041063 2.729933,0.47438403 2.3488298,0.53835603 2.036976,0.65834853 1.80854,0.88624503 1.5801067,1.1141417 1.4595387,1.425855 1.3961631,1.807119 1.3327875,2.1883834 1.3204155,2.652553 1.3232995,3.2421735 v 3.2401124 3.2416624 c -0.00286,0.5887147 0.00955,1.0526497 0.072864,1.4335037 0.063376,0.381265 0.1839436,0.692978 0.4123769,0.920875 0.228436,0.227896 0.5402898,0.34789 0.921393,0.411861 0.3811032,0.06397 0.844259,0.07752 1.4324701,0.07752 h 4.3759596 c 0.5882111,0 1.0511261,-0.01352 1.4314383,-0.07752 0.3803116,-0.064 0.6912126,-0.184399 0.9188046,-0.412377 0.227595,-0.227978 0.347451,-0.53947 0.411345,-0.920359 0.06389,-0.380886 0.07752,-0.844114 0.07752,-1.4335037 v -3.2416624 -3.175 L 8.5383627,0.46353183 Z"
     id="path1020"
     inkscape:connector-curvature="0"
     sodipodi:nodetypes="sccsccccccsscccscccs" />
  <path
     style="color:#000000;display:inline;overflow:visible;visibility:visible;fill:url(#linearGradient1024);fill-opacity:1;fill-rule:nonzero;stroke:none;stroke-width:0.26458332;marker:none;enable-background:accumulate"
     d="m 4.1018796,0.26457813 c -2.3994957,0 -2.6576788,0.2452553 -2.645918,2.63787837 v 3.3152466 3.3152472 c -0.011774,2.3926217 0.2464223,2.6378777 2.645918,2.6378777 h 4.4973796 c 2.3994958,0 2.6459178,-0.245227 2.6459178,-2.6378777 V 6.2177031 L 11.244995,2.9705441 8.5257685,0.26457813 Z"
     id="path964"
     inkscape:connector-curvature="0"
     sodipodi:nodetypes="scccssscccs" />
  <g
     transform="matrix(0.26458333,0,0,0.26458333,-84.666354,-14.948878)"
     style="display:inline;enable-background:new"
     id="g17693">
    <g
       id="g17687">
      <g
         id="g980">
        <path
           sodipodi:nodetypes="ccccccccccccccccccccc"
           inkscape:connector-curvature="0"
           id="path1309"
           d="m 344.63307,71.999674 -12.63281,2 -0.002,19.133138 L 344.54492,95 h 1.45313 l 0.002,-23.000326 z m -3.20338,7.69685 c -0.69761,1.42916 -1.39871,2.85731 -2.10938,4.28125 0.71851,1.46313 1.45272,2.915776 2.17383,4.378906 -0.62967,-0.0366 -1.25509,-0.07472 -1.88476,-0.119141 -0.44417,-1.08952 -0.98594,-2.14209 -1.30469,-3.28125 -0.35533,1.06077 -0.86194,2.05974 -1.26953,3.09961 -0.57219,-0.008 -1.14462,-0.03119 -1.7168,-0.05469 0.67147,-1.31421 1.31935,-2.638942 2.01172,-3.945312 -0.58786,-1.34555 -1.2337,-2.664233 -1.83985,-4.001953 0.5748,-0.034 1.14981,-0.06821 1.72461,-0.09961 0.3893,1.02158 0.81536,2.030415 1.13672,3.078125 0.34489,-1.11042 0.85922,-2.154675 1.30078,-3.228515 0.59048,-0.0418 1.18425,-0.07864 1.77735,-0.107422 z"
           style="display:inline;fill:#ffffff;stroke-width:1.33333325;enable-background:new" />
        <path
           style="display:inline;fill:#ffffff;stroke-width:1.33333325;enable-background:new"
           d="m 347,75 -0.002,2 h 2 v 2.00342 h -2 V 80 h 2 v 2 h -2 v 1 h 2 v 2 h -2 v 1 h 2 v 2 h -2 v 1 h 2 v 2 h -2 L 347,93 h 9 V 75 Z m 2.99805,2 H 354 v 2.00342 h -4.00195 z m 0,3 H 354 v 2 h -4.00195 z m 0,3 H 354 v 2 h -4.00195 z m 0,3 H 354 v 2 h -4.00195 z m 0,3 H 354 v 2 h -4.00195 z"
           id="path936"
           inkscape:connector-curvature="0"
           sodipodi:nodetypes="cccccccccccccccccccccccccccccccccccccccccccccccccc" />
      </g>
    </g>
  </g>
  <path
     style="color:#000000;display:inline;overflow:visible;visibility:visible;opacity:0.1;fill:#ffffff;fill-opacity:1;fill-rule:nonzero;stroke:none;stroke-width:0.26458332;marker:none;enable-background:accumulate"
     d="m 1.5878828,6.2177026 v 3.2416627 c -0.011456,2.3394527 0.2397893,2.5791707 2.5745203,2.5791707 h 4.3759596 c 2.3347313,0 2.5745203,-0.239691 2.5745203,-2.5791707 V 6.2177026 Z"
     id="path1006"
     inkscape:connector-curvature="0" />
  <path
     style="color:#000000;display:inline;overflow:visible;visibility:visible;opacity:0.1;fill:#ffffff;fill-opacity:1;fill-rule:nonzero;stroke:none;stroke-width:0.26458332;marker:none;enable-background:accumulate"
     d="M 6.3503829,0.39686923 V 12.038536 h 2.1879798 c 2.3347313,0 2.5745203,-0.239691 2.5745203,-2.5791707 v -3.2416627 -3.175 L 8.4670496,0.39686923 Z"
     id="path1013"
     inkscape:connector-curvature="0"
     sodipodi:nodetypes="ccsscccc" />
  <path
     style="color:#000000;font-style:normal;font-variant:normal;font-weight:normal;font-stretch:normal;font-size:medium;line-height:normal;font-family:sans-serif;font-variant-ligatures:normal;font-variant-position:normal;font-variant-caps:normal;font-variant-numeric:normal;font-variant-alternates:normal;font-feature-settings:normal;text-indent:0;text-align:start;text-decoration:none;text-decoration-line:none;text-decoration-style:solid;text-decoration-color:#000000;letter-spacing:normal;word-spacing:normal;text-transform:none;writing-mode:lr-tb;direction:ltr;text-orientation:mixed;dominant-baseline:auto;baseline-shift:baseline;text-anchor:start;white-space:normal;shape-padding:0;clip-rule:nonzero;display:inline;overflow:visible;visibility:visible;opacity:0.4;isolation:auto;mix-blend-mode:normal;color-interpolation:sRGB;color-interpolation-filters:linearRGB;solid-color:#000000;solid-opacity:1;vector-effect:none;fill:#000000;fill-opacity:1;fill-rule:nonzero;stroke:none;stroke-width:0.52916664;stroke-linecap:butt;stroke-linejoin:miter;stroke-miterlimit:4;stroke-dasharray:none;stroke-dashoffset:0;stroke-opacity:1;marker:none;color-rendering:auto;image-rendering:auto;shape-rendering:auto;text-rendering:auto;enable-background:accumulate"
     d="m 4.1624031,0.13228593 c -0.5882111,0 -1.0513696,0.013541 -1.4324701,0.077515 C 2.3488298,0.27377263 2.036976,0.39376523 1.80854,0.62166163 1.5801067,0.84955843 1.4595387,1.1612717 1.3961631,1.5425357 1.3327875,1.9238 1.3204155,2.3879697 1.3232995,2.9775902 v 3.2401124 3.2416627 c -0.00286,0.5887137 0.00955,1.0526497 0.072864,1.4335037 0.063376,0.381265 0.1839436,0.692978 0.4123769,0.920874 0.228436,0.227897 0.5402898,0.34789 0.921393,0.411861 0.3811032,0.06397 0.844259,0.07752 1.4324701,0.07752 h 4.3759596 c 0.5882111,0 1.0511261,-0.01352 1.4314383,-0.07752 0.3803116,-0.064 0.6912126,-0.184398 0.9188046,-0.412377 0.227595,-0.227978 0.347451,-0.539469 0.411345,-0.920358 0.06389,-0.380886 0.07752,-0.844115 0.07752,-1.4335037 V 6.2177026 2.9331487 L 8.5766029,0.13228593 Z m 0,0.2645833 H 8.4670496 L 11.112883,3.0427026 v 3.175 3.2416627 c 0,2.3394797 -0.239789,2.5791707 -2.5745203,2.5791707 H 4.1624031 c -2.334731,0 -2.5859767,-0.239718 -2.5745203,-2.5791707 V 6.2177026 2.97604 C 1.5764396,0.63658623 1.8276721,0.39686923 4.1624031,0.39686923 Z"
     id="path958"
     inkscape:connector-curvature="0"
     sodipodi:nodetypes="sccsccccccsscccscccsscccssscccs" />
  <path
     style="color:#000000;font-style:normal;font-variant:normal;font-weight:normal;font-stretch:normal;font-size:medium;line-height:normal;font-family:sans-serif;font-variant-ligatures:normal;font-variant-position:normal;font-variant-caps:normal;font-variant-numeric:normal;font-variant-alternates:normal;font-feature-settings:normal;text-indent:0;text-align:start;text-decoration:none;text-decoration-line:none;text-decoration-style:solid;text-decoration-color:#000000;letter-spacing:normal;word-spacing:normal;text-transform:none;writing-mode:lr-tb;direction:ltr;text-orientation:mixed;dominant-baseline:auto;baseline-shift:baseline;text-anchor:start;white-space:normal;shape-padding:0;clip-rule:nonzero;display:inline;overflow:visible;visibility:visible;opacity:0.4;isolation:auto;mix-blend-mode:normal;color-interpolation:sRGB;color-interpolation-filters:linearRGB;solid-color:#000000;solid-opacity:1;vector-effect:none;fill:url(#linearGradient1004);fill-opacity:1;fill-rule:nonzero;stroke:none;stroke-width:0.52916664;stroke-linecap:butt;stroke-linejoin:miter;stroke-miterlimit:4;stroke-dasharray:none;stroke-dashoffset:0;stroke-opacity:1;marker:none;color-rendering:auto;image-rendering:auto;shape-rendering:auto;text-rendering:auto;enable-background:accumulate"
     clip-path="none"
     d="m 4.1624031,0.39686923 c -2.334731,0 -2.5859635,0.239717 -2.5745203,2.57917077 v 3.2416626 3.2416627 c -0.011456,2.3394527 0.2397893,2.5791707 2.5745203,2.5791707 h 4.3759596 c 2.3347313,0 2.5745203,-0.239691 2.5745203,-2.5791707 v -3.2416627 -3.175 H 10.8483 v 3.175 3.2416627 c 0,0.5803497 -0.01625,1.0241217 -0.07028,1.3461697 -0.05403,0.322051 -0.139878,0.509149 -0.264068,0.633556 -0.12419,0.124394 -0.310716,0.21051 -0.632002,0.264583 -0.3212889,0.05406 -0.7644342,0.07028 -1.3435886,0.07028 H 4.1624031 c -0.5791544,0 -1.0228501,-0.01619 -1.3451391,-0.07028 -0.3222863,-0.0541 -0.5103204,-0.140097 -0.6351032,-0.264583 -0.1247801,-0.124495 -0.2105977,-0.311367 -0.2640647,-0.633037 -0.05347,-0.32167 -0.068472,-0.76555 -0.06563,-1.3456557 V 9.4598693 6.2177026 2.9755233 2.9749941 C 1.8496351,2.3948877 1.864637,1.9510103 1.9180961,1.6293397 1.9715657,1.307669 2.0573807,1.1207899 2.1821608,0.99630343 2.3069409,0.87181703 2.4954963,0.78581943 2.8177826,0.73172013 3.1400689,0.67764563 3.5832487,0.66145263 4.1624031,0.66145263 h 4.3046465 v -0.2645834 z"
     id="path990"
     inkscape:connector-curvature="0" />
  <path
     inkscape:connector-curvature="0"
     style="color:#000000;display:inline;overflow:visible;visibility:visible;opacity:0.6;fill:#00492b;fill-opacity:1;fill-rule:nonzero;stroke:none;stroke-width:0.06615189;marker:none;enable-background:accumulate"
     d="M 11.112883,3.3072859 V 3.0427026 L 8.4670496,0.39686923 H 8.2024662 v 1.11364557 0.04267 0.022918 c 0,1.506003 0.2016019,1.7382252 1.7110608,1.7308441 z"
     id="rect4158-0-3-62-2"
     sodipodi:nodetypes="ccccccscc" />
  <path
     inkscape:connector-curvature="0"
     style="color:#000000;display:inline;overflow:visible;visibility:visible;fill:#5cb690;fill-opacity:1;fill-rule:nonzero;stroke:none;stroke-width:0.06615189;marker:none;enable-background:accumulate"
     d="M 11.112883,3.0423639 8.4670496,0.39686873 v 0.98132417 0.04267 0.022918 c 0,1.5060031 0.069406,1.6059637 1.5788644,1.5985826 z"
     id="rect4158-0-3-62"
     sodipodi:nodetypes="ccccscc" />
</svg>
